icons/globe.svg

<?xml version="1.0" standalone="no"?><!-- Generator: Gravit.io --><svg xmlns="http://www.w3.org/2000/svg" xmlns:xlink="http://www.w3.org/1999/xlink" width="96" height="96"><path d=" M 18.59520374468 27.21677784802 C 18.814850896811755 27.61890951704965 18.95594547585248 28.059454758524826 19 28.5 C 19.6 34.2 20.9 39.9 22.7 45.3 C 23.7 48.3 25.2 51.1 27.1 53.5 C 28.7 55.5 30.5 57.3 32.5 58.8 C 34.9 60.7 37.5 62.3 40.2 63.7 C 43.5 65.3 45.6 68.8 45.6 72.5 C 45.6 72.5 45.6 72.6 45.6 72.7 L 45.5 73.3 L 44.3058650325 83.80838771397 C 45.5290500719381 83.93546528713755 46.7619776130929 84 48 84 C 56.16809325102655 84 64.1144100565435 81.190831690212 70.50416780449 76.14454476152 L 70.50416780449 76.14454476152 L 68 73.7 C 66.6 72.2 64.8 71.2 62.9 70.5 L 58.5 69.1 C 55.1 67.9 52.2 65.4 50.6 62.2 C 49.2 59.2 48.6 55.9 49.1 52.6 C 49.5 49.6 51.1 46.9 53.5 44.9 C 55.5 43.2 57.7 41.7 60 40.5 C 62.2 39.2 64.5 38.2 67 37.4 C 68.4 37 69.5 36 70.2 34.6 L 75.2793278684 24.44134426319 C 74.7113642325609 23.7749078056985 74.11801949056286 23.127243662063805 73.5 22.5 C 71.67850886519022 20.70529549952566 69.68481202341553 19.118672894967254 67.54640669469 17.77884660011 C 67.47451178570402 17.92179123071728 67.39195334734535 18.062069978981974 67.3 18.2 L 53.7 38.7 C 52.6 40.6 50.6 41.9 48.4 41.9 C 45.7 41.7 43.4 39.6 43 36.9 L 41.2 29.9 C 40.6 27.8 39.7 25.9 38.4 24.2 L 32.04493536696 15.72658048927 C 28.5505642004264 17.4432305841583 25.31904473322549 19.722411806969003 22.5 22.5 C 21.05633234628693 23.9652149321267 19.747307402613835 25.541858313941653 18.59520374468 27.21677784802 Z  M 36.39835735418 82.07412675408 L 37.5 72.6 L 37.6 72.3 C 37.5 71.7 37.2 71.1 36.6 70.8 C 33.4 69.2 30.4 67.3 27.6 65.1 C 25.1 63.2 22.8 61 20.9 58.5 C 18.3 55.3 16.4 51.7 15.1 47.8 C 14.250280448717948 45.293327323717946 13.508864394810542 42.73250289874858 12.89276592548 40.1385141226 C 12.29809747535855 42.70194964571925 12 45.33920781725337 12 48 C 12 57.5 15.8 66.7 22.5 73.5 C 26.457787060285014 77.39958430939848 31.2285885711527 80.31677615767622 36.39835735418 82.07412675408 Z  M 83.10908873712 21.47379020895 C 83.217958693054 21.587531213199107 83.31205895745009 21.71318078624159 83.38862220902 21.84904584392 C 88.9718194859897 29.34339726107464 92 38.50712360260197 92 48 C 92 59.7 87.4 70.9 79.1 79.1 C 70.9 87.4 59.7 92 48 92 C 36.3 92 25.1 87.4 16.9 79.1 C 8.6 70.9 4 59.7 4 48 C 4 36.3 8.6 25.1 16.9 16.9 C 25.1 8.6 36.3 4 48 4 C 59.7 4 70.9 8.6 79.1 16.9 C 80.55334200229495 18.335831857688994 81.89324009386486 19.86364526461451 83.10908873712 21.47379020895 L 83.10908873712 21.47379020895 Z  M 80.37417046754 32.25165906493 L 77.4 38.2 C 75.7 41.5 72.9 43.9 69.4 45 C 67.5 45.7 65.7 46.5 63.9 47.5 C 62 48.5 60.2 49.7 58.5 51.1 C 57.7 51.8 57.2 52.7 57 53.8 C 56.8 55.4 57.1 57.1 57.8 58.6 C 58.5 60 59.6 61 61.1 61.5 L 65.5 62.9 C 68.6 64 71.4 65.7 73.7 68 L 76.14454476152 70.50416780449 C 81.190831690212 64.1144100565435 84 56.16809325102655 84 48 C 84 42.51592032783816 82.73367874313185 37.13181338648171 80.37417046754 32.25165906493 L 80.37417046754 32.25165906493 Z  M 39.93917825772 12.91890434362 C 42.56821604766473 12.313407187470151 45.27173668748486 12 48 12 C 52.26444246292732 12 56.468434611662005 12.765703979773374 60.42202821387 14.21570555403 L 49.6 30.4 L 48.9 27.8 C 48.1 24.8 46.7 21.9 44.8 19.4 L 39.93917825772 12.91890434362 L 39.93917825772 12.91890434362 Z " fill-rule="evenodd" fill="#454545" stroke="none"/><mask id="_mask_ZW3pArAM4m9I09FxGQCyyML7gBMNIhUl"><path d=" M 18.59520374468 27.21677784802 C 18.814850896811755 27.61890951704965 18.95594547585248 28.059454758524826 19 28.5 C 19.6 34.2 20.9 39.9 22.7 45.3 C 23.7 48.3 25.2 51.1 27.1 53.5 C 28.7 55.5 30.5 57.3 32.5 58.8 C 34.9 60.7 37.5 62.3 40.2 63.7 C 43.5 65.3 45.6 68.8 45.6 72.5 C 45.6 72.5 45.6 72.6 45.6 72.7 L 45.5 73.3 L 44.3058650325 83.80838771397 C 45.5290500719381 83.93546528713755 46.7619776130929 84 48 84 C 56.16809325102655 84 64.1144100565435 81.190831690212 70.50416780449 76.14454476152 L 70.50416780449 76.14454476152 L 68 73.7 C 66.6 72.2 64.8 71.2 62.9 70.5 L 58.5 69.1 C 55.1 67.9 52.2 65.4 50.6 62.2 C 49.2 59.2 48.6 55.9 49.1 52.6 C 49.5 49.6 51.1 46.9 53.5 44.9 C 55.5 43.2 57.7 41.7 60 40.5 C 62.2 39.2 64.5 38.2 67 37.4 C 68.4 37 69.5 36 70.2 34.6 L 75.2793278684 24.44134426319 C 74.7113642325609 23.7749078056985 74.11801949056286 23.127243662063805 73.5 22.5 C 71.67850886519022 20.70529549952566 69.68481202341553 19.118672894967254 67.54640669469 17.77884660011 C 67.47451178570402 17.92179123071728 67.39195334734535 18.062069978981974 67.3 18.2 L 53.7 38.7 C 52.6 40.6 50.6 41.9 48.4 41.9 C 45.7 41.7 43.4 39.6 43 36.9 L 41.2 29.9 C 40.6 27.8 39.7 25.9 38.4 24.2 L 32.04493536696 15.72658048927 C 28.5505642004264 17.4432305841583 25.31904473322549 19.722411806969003 22.5 22.5 C 21.05633234628693 23.9652149321267 19.747307402613835 25.541858313941653 18.59520374468 27.21677784802 Z  M 36.39835735418 82.07412675408 L 37.5 72.6 L 37.6 72.3 C 37.5 71.7 37.2 71.1 36.6 70.8 C 33.4 69.2 30.4 67.3 27.6 65.1 C 25.1 63.2 22.8 61 20.9 58.5 C 18.3 55.3 16.4 51.7 15.1 47.8 C 14.250280448717948 45.293327323717946 13.508864394810542 42.73250289874858 12.89276592548 40.1385141226 C 12.29809747535855 42.70194964571925 12 45.33920781725337 12 48 C 12 57.5 15.8 66.7 22.5 73.5 C 26.457787060285014 77.39958430939848 31.2285885711527 80.31677615767622 36.39835735418 82.07412675408 Z  M 83.10908873712 21.47379020895 C 83.217958693054 21.587531213199107 83.31205895745009 21.71318078624159 83.38862220902 21.84904584392 C 88.9718194859897 29.34339726107464 92 38.50712360260197 92 48 C 92 59.7 87.4 70.9 79.1 79.1 C 70.9 87.4 59.7 92 48 92 C 36.3 92 25.1 87.4 16.9 79.1 C 8.6 70.9 4 59.7 4 48 C 4 36.3 8.6 25.1 16.9 16.9 C 25.1 8.6 36.3 4 48 4 C 59.7 4 70.9 8.6 79.1 16.9 C 80.55334200229495 18.335831857688994 81.89324009386486 19.86364526461451 83.10908873712 21.47379020895 L 83.10908873712 21.47379020895 Z  M 80.37417046754 32.25165906493 L 77.4 38.2 C 75.7 41.5 72.9 43.9 69.4 45 C 67.5 45.7 65.7 46.5 63.9 47.5 C 62 48.5 60.2 49.7 58.5 51.1 C 57.7 51.8 57.2 52.7 57 53.8 C 56.8 55.4 57.1 57.1 57.8 58.6 C 58.5 60 59.6 61 61.1 61.5 L 65.5 62.9 C 68.6 64 71.4 65.7 73.7 68 L 76.14454476152 70.50416780449 C 81.190831690212 64.1144100565435 84 56.16809325102655 84 48 C 84 42.51592032783816 82.73367874313185 37.13181338648171 80.37417046754 32.25165906493 L 80.37417046754 32.25165906493 Z  M 39.93917825772 12.91890434362 C 42.56821604766473 12.313407187470151 45.27173668748486 12 48 12 C 52.26444246292732 12 56.468434611662005 12.765703979773374 60.42202821387 14.21570555403 L 49.6 30.4 L 48.9 27.8 C 48.1 24.8 46.7 21.9 44.8 19.4 L 39.93917825772 12.91890434362 L 39.93917825772 12.91890434362 Z " fill-rule="evenodd" fill="white" stroke="none"/></mask><path d=" M 18.59520374468 27.21677784802 C 18.814850896811755 27.61890951704965 18.95594547585248 28.059454758524826 19 28.5 C 19.6 34.2 20.9 39.9 22.7 45.3 C 23.7 48.3 25.2 51.1 27.1 53.5 C 28.7 55.5 30.5 57.3 32.5 58.8 C 34.9 60.7 37.5 62.3 40.2 63.7 C 43.5 65.3 45.6 68.8 45.6 72.5 C 45.6 72.5 45.6 72.6 45.6 72.7 L 45.5 73.3 L 44.3058650325 83.80838771397 C 45.5290500719381 83.93546528713755 46.7619776130929 84 48 84 C 56.16809325102655 84 64.1144100565435 81.190831690212 70.50416780449 76.14454476152 L 70.50416780449 76.14454476152 L 68 73.7 C 66.6 72.2 64.8 71.2 62.9 70.5 L 58.5 69.1 C 55.1 67.9 52.2 65.4 50.6 62.2 C 49.2 59.2 48.6 55.9 49.1 52.6 C 49.5 49.6 51.1 46.9 53.5 44.9 C 55.5 43.2 57.7 41.7 60 40.5 C 62.2 39.2 64.5 38.2 67 37.4 C 68.4 37 69.5 36 70.2 34.6 L 75.2793278684 24.44134426319 C 74.7113642325609 23.7749078056985 74.11801949056286 23.127243662063805 73.5 22.5 C 71.67850886519022 20.70529549952566 69.68481202341553 19.118672894967254 67.54640669469 17.77884660011 C 67.47451178570402 17.92179123071728 67.39195334734535 18.062069978981974 67.3 18.2 L 53.7 38.7 C 52.6 40.6 50.6 41.9 48.4 41.9 C 45.7 41.7 43.4 39.6 43 36.9 L 41.2 29.9 C 40.6 27.8 39.7 25.9 38.4 24.2 L 32.04493536696 15.72658048927 C 28.5505642004264 17.4432305841583 25.31904473322549 19.722411806969003 22.5 22.5 C 21.05633234628693 23.9652149321267 19.747307402613835 25.541858313941653 18.59520374468 27.21677784802 Z  M 36.39835735418 82.07412675408 L 37.5 72.6 L 37.6 72.3 C 37.5 71.7 37.2 71.1 36.6 70.8 C 33.4 69.2 30.4 67.3 27.6 65.1 C 25.1 63.2 22.8 61 20.9 58.5 C 18.3 55.3 16.4 51.7 15.1 47.8 C 14.250280448717948 45.293327323717946 13.508864394810542 42.73250289874858 12.89276592548 40.1385141226 C 12.29809747535855 42.70194964571925 12 45.33920781725337 12 48 C 12 57.5 15.8 66.7 22.5 73.5 C 26.457787060285014 77.39958430939848 31.2285885711527 80.31677615767622 36.39835735418 82.07412675408 Z  M 83.10908873712 21.47379020895 C 83.217958693054 21.587531213199107 83.31205895745009 21.71318078624159 83.38862220902 21.84904584392 C 88.9718194859897 29.34339726107464 92 38.50712360260197 92 48 C 92 59.7 87.4 70.9 79.1 79.1 C 70.9 87.4 59.7 92 48 92 C 36.3 92 25.1 87.4 16.9 79.1 C 8.6 70.9 4 59.7 4 48 C 4 36.3 8.6 25.1 16.9 16.9 C 25.1 8.6 36.3 4 48 4 C 59.7 4 70.9 8.6 79.1 16.9 C 80.55334200229495 18.335831857688994 81.89324009386486 19.86364526461451 83.10908873712 21.47379020895 L 83.10908873712 21.47379020895 Z  M 80.37417046754 32.25165906493 L 77.4 38.2 C 75.7 41.5 72.9 43.9 69.4 45 C 67.5 45.7 65.7 46.5 63.9 47.5 C 62 48.5 60.2 49.7 58.5 51.1 C 57.7 51.8 57.2 52.7 57 53.8 C 56.8 55.4 57.1 57.1 57.8 58.6 C 58.5 60 59.6 61 61.1 61.5 L 65.5 62.9 C 68.6 64 71.4 65.7 73.7 68 L 76.14454476152 70.50416780449 C 81.190831690212 64.1144100565435 84 56.16809325102655 84 48 C 84 42.51592032783816 82.73367874313185 37.13181338648171 80.37417046754 32.25165906493 L 80.37417046754 32.25165906493 Z  M 39.93917825772 12.91890434362 C 42.56821604766473 12.313407187470151 45.27173668748486 12 48 12 C 52.26444246292732 12 56.468434611662005 12.765703979773374 60.42202821387 14.21570555403 L 49.6 30.4 L 48.9 27.8 C 48.1 24.8 46.7 21.9 44.8 19.4 L 39.93917825772 12.91890434362 L 39.93917825772 12.91890434362 Z " fill-rule="evenodd" fill="none" stroke="none" stroke-width="16" mask="url(#_mask_ZW3pArAM4m9I09FxGQCyyML7gBMNIhUl)"/></svg>

<svg xmlns="http://www.w3.org/2000/svg" width="96" height="96"><path d="M18.595 27.217c.22.402.36.842.405 1.283.6 5.7 1.9 11.4 3.7 16.8 1 3 2.5 5.8 4.4 8.2 1.6 2 3.4 3.8 5.4 5.3 2.4 1.9 5 3.5 7.7 4.9 3.3 1.6 5.4 5.1 5.4 8.8v.2l-.1.6-1.194 10.508c1.223.127 2.456.192 3.694.192 8.168 0 16.114-2.81 22.504-7.855L68 73.7c-1.4-1.5-3.2-2.5-5.1-3.2l-4.4-1.4c-3.4-1.2-6.3-3.7-7.9-6.9-1.4-3-2-6.3-1.5-9.6.4-3 2-5.7 4.4-7.7 2-1.7 4.2-3.2 6.5-4.4 2.2-1.3 4.5-2.3 7-3.1 1.4-.4 2.5-1.4 3.2-2.8l5.08-10.159A36.482 36.482 0 0 0 73.5 22.5a34.884 34.884 0 0 0-5.954-4.721 4.002 4.002 0 0 1-.246.421L53.7 38.7c-1.1 1.9-3.1 3.2-5.3 3.2-2.7-.2-5-2.3-5.4-5l-1.8-7c-.6-2.1-1.5-4-2.8-5.7l-6.355-8.473A36.588 36.588 0 0 0 22.5 22.5a34.948 34.948 0 0 0-3.905 4.717zm17.803 54.857L37.5 72.6l.1-.3c-.1-.6-.4-1.2-1-1.5-3.2-1.6-6.2-3.5-9-5.7-2.5-1.9-4.8-4.1-6.7-6.6-2.6-3.2-4.5-6.8-5.8-10.7a85.263 85.263 0 0 1-2.207-7.661A34.783 34.783 0 0 0 12 48c0 9.5 3.8 18.7 10.5 25.5a36.603 36.603 0 0 0 13.898 8.574zm46.711-60.6c.109.114.203.24.28.375C88.972 29.343 92 38.507 92 48c0 11.7-4.6 22.9-12.9 31.1C70.9 87.4 59.7 92 48 92c-11.7 0-22.9-4.6-31.1-12.9C8.6 70.9 4 59.7 4 48c0-11.7 4.6-22.9 12.9-31.1C25.1 8.6 36.3 4 48 4c11.7 0 22.9 4.6 31.1 12.9a42.068 42.068 0 0 1 4.01 4.574zm-2.735 10.778L77.4 38.2c-1.7 3.3-4.5 5.7-8 6.8-1.9.7-3.7 1.5-5.5 2.5-1.9 1-3.7 2.2-5.4 3.6-.8.7-1.3 1.6-1.5 2.7-.2 1.6.1 3.3.8 4.8.7 1.4 1.8 2.4 3.3 2.9l4.4 1.4c3.1 1.1 5.9 2.8 8.2 5.1l2.445 2.504C81.19 64.114 84 56.168 84 48a36.209 36.209 0 0 0-3.626-15.748zM39.94 12.919A35.916 35.916 0 0 1 48 12c4.264 0 8.468.766 12.422 2.216L49.6 30.4l-.7-2.6c-.8-3-2.2-5.9-4.1-8.4l-4.86-6.481z" fill-rule="evenodd" fill="#454545"/></svg>
